Origami/32x32/apps/Ri-li.svg

<svg width="32" height="32" version="1" xmlns="http://www.w3.org/2000/svg">
 <rect transform="matrix(0,-1,-1,0,0,0)" x="-31" y="-30" width="28" height="28" rx="1.4" ry="1.4" style="opacity:.2"/>
 <rect transform="matrix(0,-1,-1,0,0,0)" x="-30" y="-30" width="28" height="28" rx="1.4" ry="1.4" style="fill:#52845f"/>
 <path d="m7.6994138 11c-0.9106167 0-1.6994138 0.773606-1.6994138 1.69668v6.60698c0 0.923074 0.7888665 1.707921 1.6994138 1.69668h8.3005862v9.99966h3v-11.6c-7.7e-5 -0.773167-0.626833-1.399923-1.4-1.4h-8.6v-4h14v17h3v-18.30332c0-0.923074-0.788797-1.69668-1.699414-1.69668z" style="opacity:.2"/>
 <path d="m7.6994138 10c-0.9106167 0-1.6994138 0.773606-1.6994138 1.69668v6.60698c0 0.923074 0.7888665 1.707921 1.6994138 1.69668h8.3005862v9.99966h3v-11.6c-7.7e-5 -0.773167-0.626833-1.399923-1.4-1.4h-8.6v-4h14v17h3v-18.30332c0-0.923074-0.788797-1.69668-1.699414-1.69668z" style="fill:#fbc295"/>
 <path d="M 3.4003906 2 C 2.6247906 2 2 2.6247906 2 3.4003906 L 2 4.4003906 C 2 3.6247906 2.6247906 3 3.4003906 3 L 28.599609 3 C 29.375209 3 30 3.6247906 30 4.4003906 L 30 3.4003906 C 30 2.6247906 29.375209 2 28.599609 2 L 3.4003906 2 z" style="fill:#ffffff;opacity:.2"/>
 <path d="m7.6992188 10c-0.9106168 0-1.6992188 0.774192-1.6992188 1.697266v1c0-0.923074 0.788602-1.697266 1.6992188-1.697266h16.601562c0.910617 0 1.699219 0.774192 1.699219 1.697266v-1c0-0.923074-0.788602-1.697266-1.699219-1.697266h-16.601562zm1.3007812 7v1h8.599609c0.773167 7.7e-5 1.400314 0.627224 1.400391 1.400391v-1c-7.7e-5 -0.773167-0.627224-1.400314-1.400391-1.400391h-8.599609z" style="fill:#ffffff;opacity:.2"/>
</svg>

<svg xmlns="http://www.w3.org/2000/svg" width="32" height="32" version="1">
 <rect style="opacity:0.2" width="28" height="28" x="-31" y="-30" rx="1.4" ry="1.4" transform="matrix(0,-1,-1,0,0,0)"/>
 <rect style="fill:#52845f" width="28" height="28" x="-30" y="-30" rx="1.4" ry="1.4" transform="matrix(0,-1,-1,0,0,0)"/>
 <path style="opacity:0.2" d="M 7.6994138,11 C 6.7887971,11 6,11.773606 6,12.69668 v 6.60698 c 0,0.923074 0.7888665,1.707921 1.6994138,1.69668 H 16 V 31 h 3 V 19.4 C 18.999923,18.626833 18.373167,18.000077 17.6,18 H 9 V 14 H 23 V 15.499414 19.10332 31 h 3 V 19.10332 15.499414 12.69668 C 26,11.773606 25.211203,11 24.300586,11 Z"/>
 <path style="fill:#fbc295" d="M 7.6994138,10 C 6.7887971,10 6,10.773606 6,11.69668 v 6.60698 c 0,0.923074 0.7888665,1.707921 1.6994138,1.69668 H 16 V 30 h 3 V 18.4 C 18.999923,17.626833 18.373167,17.000077 17.6,17 H 9 V 13 H 23 V 14.499414 18.10332 30 h 3 V 18.10332 14.499414 11.69668 C 26,10.773606 25.211203,10 24.300586,10 Z"/>
 <path style="fill:#ffffff;opacity:0.2" d="M 3.4003906 2 C 2.6247906 2 2 2.6247906 2 3.4003906 L 2 4.4003906 C 2 3.6247906 2.6247906 3 3.4003906 3 L 28.599609 3 C 29.375209 3 30 3.6247906 30 4.4003906 L 30 3.4003906 C 30 2.6247906 29.375209 2 28.599609 2 L 3.4003906 2 z"/>
 <path style="opacity:0.2;fill:#ffffff" d="M 7.6992188 10 C 6.788602 10 6 10.774192 6 11.697266 L 6 12.697266 C 6 11.774192 6.788602 11 7.6992188 11 L 24.300781 11 C 25.211398 11 26 11.774192 26 12.697266 L 26 11.697266 C 26 10.774192 25.211398 10 24.300781 10 L 7.6992188 10 z M 9 17 L 9 18 L 17.599609 18 C 18.372776 18.000077 18.999923 18.627224 19 19.400391 L 19 18.400391 C 18.999923 17.627224 18.372776 17.000077 17.599609 17 L 9 17 z"/>
</svg>
